img/ico-email.svg

<?xml version="1.0" encoding="UTF-8" standalone="no"?>
<svg width="32px" height="32px" viewBox="0 0 32 32" version="1.1" xmlns="http://www.w3.org/2000/svg" xmlns:xlink="http://www.w3.org/1999/xlink" xmlns:sketch="http://www.bohemiancoding.com/sketch/ns">
    <!-- Generator: Sketch Beta 3.4.4 (17258) - http://www.bohemiancoding.com/sketch -->
    <title>Icon</title>
    <desc>Created with Sketch Beta.</desc>
    <defs>
        <rect id="path-1" x="0" y="0" width="32" height="32"></rect>
    </defs>
    <g id="Page-1" stroke="none" stroke-width="1" fill="none" fill-rule="evenodd" sketch:type="MSPage">
        <g id="About-Web" sketch:type="MSArtboardGroup" transform="translate(-914.000000, -1160.000000)">
            <g id="Contact" sketch:type="MSLayerGroup" transform="translate(241.000000, 952.000000)">
                <g id="Email" transform="translate(653.000000, 188.000000)">
                    <g id="Icon" transform="translate(20.000000, 20.000000)">
                        <g id="Rectangle-319-Copy">
                            <use fill="#E74E40" fill-rule="evenodd" sketch:type="MSShapeGroup" xlink:href="#path-1"></use>
                            <use fill="none" xlink:href="#path-1"></use>
                        </g>
                        <path d="M16.416,13.198 C16.0559982,13.198 15.7410014,13.2909991 15.471,13.477 C15.2009987,13.6630009 14.970001,13.8999986 14.778,14.188 C14.585999,14.4760014 14.4420005,14.7999982 14.346,15.16 C14.2499995,15.5200018 14.202,15.8739983 14.202,16.222 C14.202,16.3900008 14.2229998,16.5819989 14.265,16.798 C14.3070002,17.0140011 14.3819995,17.217999 14.49,17.41 C14.5980005,17.602001 14.7449991,17.7609994 14.931,17.887 C15.1170009,18.0130006 15.3539986,18.076 15.642,18.076 C16.050002,18.076 16.3979986,17.974001 16.686,17.77 C16.9740014,17.565999 17.2079991,17.3110015 17.388,17.005 C17.5680009,16.6989985 17.6999996,16.3720017 17.784,16.024 C17.8680004,15.6759983 17.91,15.3520015 17.91,15.052 C17.91,14.8239989 17.8860002,14.5990011 17.838,14.377 C17.7899998,14.1549989 17.7090006,13.9570009 17.595,13.783 C17.4809994,13.6089991 17.328001,13.4680005 17.136,13.36 C16.943999,13.2519995 16.7040014,13.198 16.416,13.198 L16.416,13.198 Z M22.158,20.182 C21.4499965,20.9020036 20.6190048,21.4389982 19.665,21.793 C18.7109952,22.1470018 17.6580058,22.324 16.506,22.324 C15.4739948,22.324 14.5350042,22.1590017 13.689,21.829 C12.8429958,21.4989984 12.120003,21.0400029 11.52,20.452 C10.919997,19.8639971 10.4550017,19.1590041 10.125,18.337 C9.79499835,17.5149959 9.63,16.6180049 9.63,15.646 C9.63,14.6859952 9.8099982,13.7980041 10.17,12.982 C10.5300018,12.1659959 11.0219969,11.458003 11.646,10.858 C12.2700031,10.257997 12.9989958,9.78700171 13.833,9.445 C14.6670042,9.10299829 15.5579953,8.932 16.506,8.932 C17.3220041,8.932 18.1139962,9.0519988 18.882,9.292 C19.6500038,9.5320012 20.330997,9.8919976 20.925,10.372 C21.519003,10.8520024 21.9929982,11.4519964 22.347,12.172 C22.7010018,12.8920036 22.878,13.7379951 22.878,14.71 C22.878,15.4300036 22.782001,16.0659972 22.59,16.618 C22.397999,17.1700028 22.1430016,17.6319981 21.825,18.004 C21.5069984,18.3760019 21.1380021,18.6549991 20.718,18.841 C20.2979979,19.0270009 19.8540023,19.12 19.386,19.12 C18.8459973,19.12 18.4500013,18.9880013 18.198,18.724 C17.9459987,18.4599987 17.82,18.1540017 17.82,17.806 L17.748,17.806 C17.6879997,17.9380007 17.5920007,18.0789993 17.46,18.229 C17.3279993,18.3790008 17.166001,18.5199993 16.974,18.652 C16.781999,18.7840007 16.5630012,18.8949996 16.317,18.985 C16.0709988,19.0750005 15.7980015,19.12 15.498,19.12 C15.089998,19.12 14.7240016,19.0450008 14.4,18.895 C14.0759984,18.7449993 13.8030011,18.5410013 13.581,18.283 C13.3589989,18.0249987 13.1880006,17.7130018 13.068,17.347 C12.9479994,16.9809982 12.888,16.5820022 12.888,16.15 C12.888,15.6459975 12.9719992,15.1510024 13.14,14.665 C13.3080008,14.1789976 13.5449985,13.7470019 13.851,13.369 C14.1570015,12.9909981 14.5319978,12.6880011 14.976,12.46 C15.4200022,12.2319989 15.9179972,12.118 16.47,12.118 C16.9260023,12.118 17.3189984,12.222999 17.649,12.433 C17.9790017,12.6430011 18.2099993,12.8979985 18.342,13.198 L18.414,13.198 L18.594,12.388 L19.71,12.388 L18.99,15.736 C18.9659999,15.8200004 18.9450001,15.9249994 18.927,16.051 C18.9089999,16.1770006 18.8880001,16.3089993 18.864,16.447 C18.8399999,16.5850007 18.8220001,16.7199993 18.81,16.852 C18.7979999,16.9840007 18.792,17.0919996 18.792,17.176 C18.792,17.2840005 18.8009999,17.3889995 18.819,17.491 C18.8370001,17.5930005 18.8789997,17.6889996 18.945,17.779 C19.0110003,17.8690005 19.1009994,17.9409997 19.215,17.995 C19.3290006,18.0490003 19.481999,18.076 19.674,18.076 C19.9740015,18.076 20.2469988,17.9920008 20.493,17.824 C20.7390012,17.6559992 20.9489991,17.4280014 21.123,17.14 C21.2970009,16.8519986 21.4319995,16.510002 21.528,16.114 C21.6240005,15.717998 21.672,15.2920023 21.672,14.836 C21.672,14.0559961 21.5430013,13.369003 21.285,12.775 C21.0269987,12.180997 20.6670023,11.680002 20.205,11.272 C19.7429977,10.863998 19.1970032,10.558001 18.567,10.354 C17.9369969,10.149999 17.2440038,10.048 16.488,10.048 C15.6599959,10.048 14.9100034,10.1919986 14.238,10.48 C13.5659966,10.7680014 12.9870024,11.1639975 12.501,11.668 C12.0149976,12.1720025 11.6400013,12.7689966 11.376,13.459 C11.1119987,14.1490035 10.98,14.895996 10.98,15.7 C10.98,16.5520043 11.1179986,17.3199966 11.394,18.004 C11.6700014,18.6880034 12.0569975,19.2699976 12.555,19.75 C13.0530025,20.2300024 13.6469966,20.5989987 14.337,20.857 C15.0270035,21.1150013 15.7919958,21.244 16.632,21.244 C17.7000053,21.244 18.6239961,21.0790017 19.404,20.749 C20.1840039,20.4189984 20.8799969,19.954003 21.492,19.354 L22.158,20.182 Z" id="@" fill="#FFFFFF" sketch:type="MSShapeGroup"></path>
                    </g>
                </g>
            </g>
        </g>
    </g>
</svg>

<svg width="32" height="32" viewBox="0 0 32 32" xmlns="http://www.w3.org/2000/svg" xmlns:xlink="http://www.w3.org/1999/xlink" xmlns:sketch="http://www.bohemiancoding.com/sketch/ns"><title>Icon</title><desc>Created with Sketch Beta.</desc><defs><path id="a" d="M0 0h32v32h-32z"/></defs><g sketch:type="MSLayerGroup" fill="none"><g><use fill="#E74E40" sketch:type="MSShapeGroup" xlink:href="#a"/><use xlink:href="#a"/></g><path d="M16.416 13.198c-.36 0-.675.093-.945.279-.27.186-.501.423-.693.711-.192.288-.336.612-.432.972-.096.36-.144.714-.144 1.062 0 .168.021.36.063.576.042.216.117.42.225.612s.255.351.441.477.423.189.711.189c.408 0 .756-.102 1.044-.306.288-.204.522-.459.702-.765.18-.306.312-.633.396-.981.084-.348.126-.672.126-.972 0-.228-.024-.453-.072-.675-.048-.222-.129-.42-.243-.594-.114-.174-.267-.315-.459-.423-.192-.108-.432-.162-.72-.162zm5.742 6.984c-.708.72-1.539 1.257-2.493 1.611-.954.354-2.007.531-3.159.531-1.032 0-1.971-.165-2.817-.495-.846-.33-1.569-.789-2.169-1.377-.6-.588-1.065-1.293-1.395-2.115-.33-.822-.495-1.719-.495-2.691 0-.96.18-1.848.54-2.664.36-.816.852-1.524 1.476-2.124.624-.6 1.353-1.071 2.187-1.413.834-.342 1.725-.513 2.673-.513.816 0 1.608.12 2.376.36.768.24 1.449.6 2.043 1.08.594.48 1.068 1.08 1.422 1.8.354.72.531 1.566.531 2.538 0 .72-.096 1.356-.288 1.908-.192.552-.447 1.014-.765 1.386-.318.372-.687.651-1.107.837-.42.186-.864.279-1.332.279-.54 0-.936-.132-1.188-.396-.252-.264-.378-.57-.378-.918h-.072c-.06.132-.156.273-.288.423-.132.15-.294.291-.486.423s-.411.243-.657.333c-.246.09-.519.135-.819.135-.408 0-.774-.075-1.098-.225-.324-.15-.597-.354-.819-.612-.222-.258-.393-.57-.513-.936-.12-.366-.18-.765-.18-1.197 0-.504.084-.999.252-1.485.168-.486.405-.918.711-1.296.306-.378.681-.681 1.125-.909.444-.228.942-.342 1.494-.342.456 0 .849.105 1.179.315.33.21.561.465.693.765h.072l.18-.81h1.116l-.72 3.348-.063.315-.063.396-.054.405-.018.324.027.315c.018.102.06.198.126.288.066.09.156.162.27.216.114.054.267.081.459.081.3 0 .573-.084.819-.252.246-.168.456-.396.63-.684.174-.288.309-.63.405-1.026.096-.396.144-.822.144-1.278 0-.78-.129-1.467-.387-2.061-.258-.594-.618-1.095-1.08-1.503-.462-.408-1.008-.714-1.638-.918-.63-.204-1.323-.306-2.079-.306-.828 0-1.578.144-2.25.432-.672.288-1.251.684-1.737 1.188-.486.504-.861 1.101-1.125 1.791s-.396 1.437-.396 2.241c0 .852.138 1.62.414 2.304.276.684.663 1.266 1.161 1.746s1.092.849 1.782 1.107 1.455.387 2.295.387c1.068 0 1.992-.165 2.772-.495.78-.33 1.476-.795 2.088-1.395l.666.828z" fill="#fff" sketch:type="MSShapeGroup"/></g></svg>
